Numix-Circle/48x48/apps/rhythmbox.svg

<?xml version="1.0" encoding="UTF-8" standalone="no"?>
<svg
   xmlns:dc="http://purl.org/dc/elements/1.1/"
   xmlns:cc="http://creativecommons.org/ns#"
   xmlns:rdf="http://www.w3.org/1999/02/22-rdf-syntax-ns#"
   xmlns:svg="http://www.w3.org/2000/svg"
   xmlns="http://www.w3.org/2000/svg"
   xmlns:xlink="http://www.w3.org/1999/xlink"
   xmlns:sodipodi="http://sodipodi.sourceforge.net/DTD/sodipodi-0.dtd"
   xmlns:inkscape="http://www.inkscape.org/namespaces/inkscape"
   width="48"
   viewBox="0 0 13.546667 13.546667"
   height="48"
   id="svg2"
   version="1.1"
   inkscape:version="0.91 r13725"
   sodipodi:docname="rhythmbox.svg">
  <metadata
     id="metadata331">
    <rdf:RDF>
      <cc:Work
         rdf:about="">
        <dc:format>image/svg+xml</dc:format>
        <dc:type
           rdf:resource="http://purl.org/dc/dcmitype/StillImage" />
        <dc:title />
      </cc:Work>
    </rdf:RDF>
  </metadata>
  <sodipodi:namedview
     pagecolor="#ffffff"
     bordercolor="#666666"
     borderopacity="1"
     objecttolerance="10"
     gridtolerance="10"
     guidetolerance="10"
     inkscape:pageopacity="0"
     inkscape:pageshadow="2"
     inkscape:window-width="1920"
     inkscape:window-height="1023"
     id="namedview329"
     showgrid="true"
     inkscape:zoom="10.901147"
     inkscape:cx="24.455962"
     inkscape:cy="33.282895"
     inkscape:window-x="0"
     inkscape:window-y="28"
     inkscape:window-maximized="1"
     inkscape:current-layer="layer3">
    <inkscape:grid
       type="xygrid"
       id="grid3308" />
  </sodipodi:namedview>
  <defs
     id="defs4">
    <linearGradient
       inkscape:collect="always"
       xlink:href="#linearGradient4460-9"
       id="linearGradient4033"
       x1="-27"
       y1="13"
       x2="-24"
       y2="13"
       gradientUnits="userSpaceOnUse" />
    <linearGradient
       id="linearGradient4460-9">
      <stop
         id="stop4454"
         style="stop-color:#fda168;stop-opacity:1;"
         offset="0" />
      <stop
         id="stop4456"
         style="stop-color:#f6a370;stop-opacity:1;"
         offset="1" />
    </linearGradient>
  </defs>
  <g
     inkscape:groupmode="layer"
     id="layer1"
     inkscape:label="Shadow"
     sodipodi:insensitive="true">
    <path
       style="opacity:0.05;fill:#000000;fill-opacity:1;stroke:none"
       d="M 25,2 C 12.297451,2 2,12.297451 2,25 2,31.367153 4.6007106,37.116628 8.78125,41.28125 12.865755,44.99361 18.29568,47.25 24.25,47.25 c 12.702549,0 23,-10.297451 23,-23 0,-5.95432 -2.25639,-11.384245 -5.96875,-15.46875 C 37.116628,4.6007105 31.367153,2 25,2 z M 41.28125,8.78125 C 45.135604,12.894061 47.5,18.418655 47.5,24.5 c 0,12.702549 -10.297451,23 -23,23 C 18.418655,47.5 12.894061,45.135604 8.78125,41.28125 12.940939,45.4251 18.664604,48 25,48 37.702549,48 48,37.702549 48,25 48,18.664604 45.4251,12.940939 41.28125,8.78125 z"
       transform="scale(0.28222223,0.28222223)"
       id="path3978"
       inkscape:connector-curvature="0" />
    <path
       style="opacity:0.1;fill:#000000;fill-opacity:1;stroke:none"
       d="M 41.28125,8.78125 C 44.99361,12.865755 47.25,18.29568 47.25,24.25 c 0,12.702549 -10.297451,23 -23,23 -5.95432,0 -11.384245,-2.25639 -15.46875,-5.96875 C 12.894061,45.135604 18.418655,47.5 24.5,47.5 c 12.702549,0 23,-10.297451 23,-23 0,-6.081345 -2.364396,-11.605939 -6.21875,-15.71875 z"
       transform="scale(0.28222223,0.28222223)"
       id="path3976"
       inkscape:connector-curvature="0" />
    <path
       transform="matrix(4.3274074,0,0,3.2455556,117.19278,-35.348334)"
       d="m -24,13 a 1.5,2 0 1 1 -3,0 1.5,2 0 1 1 3,0 z"
       sodipodi:ry="2"
       sodipodi:rx="1.5"
       sodipodi:cy="13"
       sodipodi:cx="-25.5"
       id="path3952"
       style="opacity:0.2;fill:#000000;fill-opacity:1;stroke:none"
       sodipodi:type="arc" />
  </g>
  <g
     inkscape:groupmode="layer"
     id="layer2"
     inkscape:label="Base">
    <path
       sodipodi:type="arc"
       style="fill:url(#linearGradient4033);fill-opacity:1.0;stroke:none"
       id="path3942"
       sodipodi:cx="-25.5"
       sodipodi:cy="13"
       sodipodi:rx="1.5"
       sodipodi:ry="2"
       d="m -24,13 a 1.5,2 0 1 1 -3,0 1.5,2 0 1 1 3,0 z"
       transform="matrix(0,-4.3274075,3.2455556,0,-35.418894,-103.57556)" />
    <path
       style="opacity:0.1;fill:#000000;fill-opacity:1;stroke:none"
       d="M 40.03125 7.53125 C 43.74361 11.615755 46 17.04568 46 23 C 46 35.702549 35.702549 46 23 46 C 17.04568 46 11.615755 43.74361 7.53125 40.03125 C 11.709416 44.322508 17.537578 47 24 47 C 36.702549 47 47 36.702549 47 24 C 47 17.537578 44.322508 11.709416 40.03125 7.53125 z "
       id="path4027"
       transform="scale(0.28222223,0.28222223)" />
  </g>
  <g
     inkscape:groupmode="layer"
     id="layer3"
     inkscape:label="Symbol">
    <rect
       ry="0.75"
       rx="0.75"
       y="3.3866665"
       x="3.9511113"
       height="7.3377781"
       width="6.208889"
       id="rect4053"
       style="fill:#000000;fill-opacity:1;stroke:none;opacity:0.1" />
    <rect
       style="fill:#425d6c;fill-opacity:1;stroke:none"
       id="rect3238"
       width="6.208889"
       height="7.3377781"
       x="3.668889"
       y="3.1044445"
       rx="0.75"
       ry="0.75" />
    <rect
       ry="0.75"
       rx="0.75"
       y="3.668889"
       x="4.2333336"
       height="6.208889"
       width="5.0799999"
       id="rect4027"
       style="fill:#617582;fill-opacity:1;stroke:none" />
    <path
       sodipodi:type="arc"
       style="fill:#88a4b3;fill-opacity:1;stroke:none"
       id="path4031"
       sodipodi:cx="-8"
       sodipodi:cy="16"
       sodipodi:rx="1"
       sodipodi:ry="1"
       d="m -7,16 a 1,1 0 1 1 -2,0 1,1 0 1 1 2,0 z"
       transform="matrix(0.28222223,0,0,0.28222223,7.337778,-1.4166666e-8)" />
    <path
       transform="matrix(0.28222223,0,0,0.28222223,10.724444,-1.4166666e-8)"
       d="m -7,16 a 1,1 0 1 1 -2,0 1,1 0 1 1 2,0 z"
       sodipodi:ry="1"
       sodipodi:rx="1"
       sodipodi:cy="16"
       sodipodi:cx="-8"
       id="path4033"
       style="fill:#88a4b3;fill-opacity:1;stroke:none"
       sodipodi:type="arc" />
    <path
       transform="matrix(0.28222223,0,0,0.28222223,7.337778,4.5155559)"
       d="m -7,16 a 1,1 0 1 1 -2,0 1,1 0 1 1 2,0 z"
       sodipodi:ry="1"
       sodipodi:rx="1"
       sodipodi:cy="16"
       sodipodi:cx="-8"
       id="path4035"
       style="fill:#88a4b3;fill-opacity:1;stroke:none"
       sodipodi:type="arc" />
    <path
       sodipodi:type="arc"
       style="fill:#88a4b3;fill-opacity:1;stroke:none"
       id="path4037"
       sodipodi:cx="-8"
       sodipodi:cy="16"
       sodipodi:rx="1"
       sodipodi:ry="1"
       d="m -7,16 a 1,1 0 1 1 -2,0 1,1 0 1 1 2,0 z"
       transform="matrix(0.28222223,0,0,0.28222223,10.724444,4.5155559)" />
    <path
       transform="matrix(1.4111111,0,0,1.4111111,18.062222,-14.675555)"
       d="m -7,16 a 1,1 0 1 1 -2,0 1,1 0 1 1 2,0 z"
       sodipodi:ry="1"
       sodipodi:rx="1"
       sodipodi:cy="16"
       sodipodi:cx="-8"
       id="path4039"
       style="fill:#334d5c;fill-opacity:1;stroke:none"
       sodipodi:type="arc" />
    <path
       sodipodi:type="arc"
       style="fill:#efc84a;fill-opacity:1;stroke:none"
       id="path4041"
       sodipodi:cx="-8"
       sodipodi:cy="16"
       sodipodi:rx="1"
       sodipodi:ry="1"
       d="m -7,16 a 1,1 0 1 1 -2,0 1,1 0 1 1 2,0 z"
       transform="matrix(1.1288889,0,0,1.1288889,15.804445,-10.16)" />
    <path
       transform="matrix(0.56444446,0,0,0.56444446,11.288889,-1.1288893)"
       d="m -7,16 a 1,1 0 1 1 -2,0 1,1 0 1 1 2,0 z"
       sodipodi:ry="1"
       sodipodi:rx="1"
       sodipodi:cy="16"
       sodipodi:cx="-8"
       id="path4043"
       style="fill:#334d5c;fill-opacity:1;stroke:none"
       sodipodi:type="arc" />
    <path
       sodipodi:type="arc"
       style="fill:#f0f0f0;fill-opacity:1;stroke:none"
       id="path4045"
       sodipodi:cx="-8"
       sodipodi:cy="16"
       sodipodi:rx="1"
       sodipodi:ry="1"
       d="m -7,16 a 1,1 0 1 1 -2,0 1,1 0 1 1 2,0 z"
       transform="matrix(0.28222223,0,0,0.28222223,9.0311113,3.3866664)" />
    <path
       sodipodi:type="arc"
       style="fill:#ebeeef;fill-opacity:1;stroke:none"
       id="path4047"
       sodipodi:cx="-8"
       sodipodi:cy="16"
       sodipodi:rx="1"
       sodipodi:ry="1"
       d="m -7,16 a 1,1 0 1 1 -2,0 1,1 0 1 1 2,0 z"
       transform="matrix(0.84666669,0,0,0.84666669,13.546667,-8.4666669)" />
    <path
       sodipodi:type="arc"
       style="fill:#334d5c;fill-opacity:1;stroke:none"
       id="path4049"
       sodipodi:cx="-8"
       sodipodi:cy="16"
       sodipodi:rx="1"
       sodipodi:ry="1"
       d="m -7,16 a 1,1 0 1 1 -2,0 1,1 0 1 1 2,0 z"
       transform="matrix(0.56444446,0,0,0.56444446,11.288889,-3.9511118)" />
    <path
       transform="matrix(0.28222223,0,0,0.28222223,9.0311113,0.56444394)"
       d="m -7,16 a 1,1 0 1 1 -2,0 1,1 0 1 1 2,0 z"
       sodipodi:ry="1"
       sodipodi:rx="1"
       sodipodi:cy="16"
       sodipodi:cx="-8"
       id="path4051"
       style="fill:#efc84a;fill-opacity:1;stroke:none"
       sodipodi:type="arc" />
  </g>
</svg>

<svg xmlns="http://www.w3.org/2000/svg" width="48" viewBox="0 0 13.546667 13.546667" height="48"><defs><linearGradient id="linearGradient4033" x1="-27" x2="-24" gradientUnits="userSpaceOnUse"><stop stop-color="#fda168" stop-opacity="1"/><stop offset="1" stop-color="#f6a370" stop-opacity="1"/></linearGradient></defs><g><path d="m 25 2 c -12.703 0 -23 10.297 -23 23 0 6.367 2.601 12.12 6.781 16.281 4.085 3.712 9.514 5.969 15.469 5.969 c 12.703 0 23 -10.297 23 -23 0 -5.954 -2.256 -11.384 -5.969 -15.469 c -4.165 -4.181 -9.914 -6.781 -16.281 -6.781 z m 16.281 6.781 c 3.854 4.113 6.219 9.637 6.219 15.719 c 0 12.703 -10.297 23 -23 23 c -6.081 0 -11.606 -2.364 -15.719 -6.219 4.16 4.144 9.883 6.719 16.219 6.719 12.703 0 23 -10.297 23 -23 0 -6.335 -2.575 -12.06 -6.719 -16.219 z" transform="scale(0.28222223,0.28222223)" opacity="0.05" fill="#000" stroke="none" fill-opacity="1"/><path d="m 41.28 8.781 c 3.712 4.085 5.969 9.514 5.969 15.469 c 0 12.703 -10.297 23 -23 23 -5.954 0 -11.384 -2.256 -15.469 -5.969 c 4.113 3.854 9.637 6.219 15.719 6.219 c 12.703 0 23 -10.297 23 -23 0 -6.081 -2.364 -11.606 -6.219 -15.719 z" transform="scale(0.28222223,0.28222223)" opacity="0.1" fill="#000" stroke="none" fill-opacity="1"/><path transform="matrix(4.3274074,0,0,3.2455556,117.19278,-35.348334)" d="m -24 13 a 1.5 2 0 1 1 -3 0 1.5 2 0 1 1 3 0 z" opacity="0.2" fill="#000" stroke="none" fill-opacity="1"/></g><g><path d="m -24 13 a 1.5 2 0 1 1 -3 0 1.5 2 0 1 1 3 0 z" transform="matrix(0,-4.3274075,3.2455556,0,-35.418894,-103.57556)" fill="url(#linearGradient4033)" stroke="none" fill-opacity="1"/><path d="m 40.03 7.531 c 3.712 4.085 5.969 9.514 5.969 15.469 c 0 12.703 -10.297 23 -23 23 c -5.954 0 -11.384 -2.256 -15.469 -5.969 c 4.178 4.291 10.01 6.969 16.469 6.969 c 12.703 0 23 -10.297 23 -23 c 0 -6.462 -2.677 -12.291 -6.969 -16.469 z" transform="scale(0.28222223,0.28222223)" opacity="0.1" fill="#000" stroke="none" fill-opacity="1"/></g><g><rect rx="0.75" y="3.387" x="3.951" height="7.338" width="6.209" opacity="0.1" fill="#000" stroke="none" fill-opacity="1"/><rect width="6.209" height="7.338" x="3.669" y="3.104" rx="0.75" fill="#425d6c" stroke="none" fill-opacity="1"/><rect rx="0.75" y="3.669" x="4.233" height="6.209" width="5.08" fill="#617582" stroke="none" fill-opacity="1"/><path d="m -7 16 a 1 1 0 1 1 -2 0 1 1 0 1 1 2 0 z" transform="matrix(0.28222223,0,0,0.28222223,7.337778,-1.4166666e-8)" fill="#88a4b3" stroke="none" fill-opacity="1"/><path transform="matrix(0.28222223,0,0,0.28222223,10.724444,-1.4166666e-8)" d="m -7 16 a 1 1 0 1 1 -2 0 1 1 0 1 1 2 0 z" fill="#88a4b3" stroke="none" fill-opacity="1"/><path transform="matrix(0.28222223,0,0,0.28222223,7.337778,4.5155559)" d="m -7 16 a 1 1 0 1 1 -2 0 1 1 0 1 1 2 0 z" fill="#88a4b3" stroke="none" fill-opacity="1"/><path d="m -7 16 a 1 1 0 1 1 -2 0 1 1 0 1 1 2 0 z" transform="matrix(0.28222223,0,0,0.28222223,10.724444,4.5155559)" fill="#88a4b3" stroke="none" fill-opacity="1"/><path transform="matrix(1.4111111,0,0,1.4111111,18.062222,-14.675555)" d="m -7 16 a 1 1 0 1 1 -2 0 1 1 0 1 1 2 0 z" fill="#334d5c" stroke="none" fill-opacity="1"/><path d="m -7 16 a 1 1 0 1 1 -2 0 1 1 0 1 1 2 0 z" transform="matrix(1.1288889,0,0,1.1288889,15.804445,-10.16)" fill="#efc84a" stroke="none" fill-opacity="1"/><path transform="matrix(0.56444446,0,0,0.56444446,11.288889,-1.1288893)" d="m -7 16 a 1 1 0 1 1 -2 0 1 1 0 1 1 2 0 z" fill="#334d5c" stroke="none" fill-opacity="1"/><path d="m -7 16 a 1 1 0 1 1 -2 0 1 1 0 1 1 2 0 z" transform="matrix(0.28222223,0,0,0.28222223,9.0311113,3.3866664)" fill="#f0f0f0" stroke="none" fill-opacity="1"/><path d="m -7 16 a 1 1 0 1 1 -2 0 1 1 0 1 1 2 0 z" transform="matrix(0.84666669,0,0,0.84666669,13.546667,-8.4666669)" fill="#ebeeef" stroke="none" fill-opacity="1"/><path d="m -7 16 a 1 1 0 1 1 -2 0 1 1 0 1 1 2 0 z" transform="matrix(0.56444446,0,0,0.56444446,11.288889,-3.9511118)" fill="#334d5c" stroke="none" fill-opacity="1"/><path transform="matrix(0.28222223,0,0,0.28222223,9.0311113,0.56444394)" d="m -7 16 a 1 1 0 1 1 -2 0 1 1 0 1 1 2 0 z" fill="#efc84a" stroke="none" fill-opacity="1"/></g></svg>
